dist/img/logo-grey.svg

<?xml version="1.0" encoding="UTF-8"?>
<svg width="147px" height="15px" viewBox="0 0 147 15" version="1.1" xmlns="http://www.w3.org/2000/svg" xmlns:xlink="http://www.w3.org/1999/xlink">
    <!-- Generator: sketchtool 52.5 (67469) - http://www.bohemiancoding.com/sketch -->
    <title>6D9E8B82-C446-41B3-8A66-B6CF11EBFB42</title>
    <desc>Created with sketchtool.</desc>
    <g id="Page-1" stroke="none" stroke-width="1" fill="none" fill-rule="evenodd">
        <g id="desktop" transform="translate(-145.000000, -4491.000000)" fill="#CCCCCC">
            <g id="Page-1" transform="translate(145.000000, 4491.000000)">
                <path d="M47.003426,6.67341429 L47.003426,3.24612857 L48.9095847,3.24612857 C50.4213961,3.24612857 51.1766416,3.80455714 51.1766416,4.94712857 C51.1766416,6.08927143 50.4213961,6.67341429 48.9355518,6.67341429 L47.003426,6.67341429 Z M44.0053302,0.7077 L44.0053302,12.1295571 L47.003426,12.1295571 L47.003426,9.00741429 L49.1961027,9.00741429 C52.8711027,9.00741429 54.3573871,7.35827143 54.3573871,5.04827143 C54.3573871,2.58655714 52.6888931,0.7077 48.9610787,0.7077 L44.0053302,0.7077 Z" id="Fill-1"></path>
                <path d="M58.6734656,5.35298571 L64.4341931,5.35298571 C64.4601602,3.93184286 63.4170763,2.86512857 61.7490225,2.86512857 C60.0550015,2.86512857 59.0123578,3.70341429 58.6734656,5.35298571 L58.6734656,5.35298571 Z M66.4671063,10.9874143 C65.3210344,11.9272714 63.83475,12.4094143 61.9836063,12.4094143 C60.0805284,12.4094143 58.5687171,11.8509857 57.396238,10.7594143 C56.2488458,9.66784286 55.6753698,8.22141429 55.6753698,6.41927143 C55.6753698,4.7187 56.2488458,3.29712857 57.370271,2.15455714 C58.491256,1.01241429 60.0026272,0.4287 61.8792979,0.4287 C63.4170763,0.4287 64.7466781,0.936128571 65.8152889,1.92655714 C66.8838997,2.91612857 67.4314087,4.18555714 67.4314087,5.73398571 C67.4314087,6.36827143 67.3790344,6.90141429 67.2491991,7.3077 L58.7773338,7.3077 C59.0123578,9.00741429 60.4194207,9.97212857 62.2965314,9.97212857 C63.6256931,9.97212857 64.7207111,9.61727143 65.6071123,8.93198571 L66.4671063,10.9874143 Z" id="Fill-3"></path>
                <polygon id="Fill-6" points="69.0583994 12.1297714 69.0583994 0.707914286 72.0564952 0.707914286 72.0564952 9.41391429 76.8788874 9.41391429 76.8788874 0.707914286 79.876103 0.707914286 79.876103 9.41391429 81.831115 9.41391429 81.831115 14.7950571 79.016109 14.7950571 79.016109 12.1297714"></polygon>
                <polygon id="Fill-9" points="86.3752195 12.1297714 83.3771237 12.1297714 83.3771237 0.707914286 86.3752195 0.707914286 86.3752195 7.9422 91.8489889 0.707914286 94.8466446 0.707914286 94.8466446 12.1297714 91.8489889 12.1297714 91.8489889 4.89591429"></polygon>
                <path d="M107.910587,0.707742857 L103.40156,6.13988571 L108.457656,12.1296 L104.547632,12.1296 L99.9078898,6.36831429 L104.130399,0.707742857 L107.910587,0.707742857 Z M96.8063659,12.1296 L99.8044617,12.1296 L99.8044617,0.707742857 L96.8063659,0.707742857 L96.8063659,12.1296 Z" id="Fill-11"></path>
                <path d="M118.023483,12.1297714 L118.023483,3.62691429 L114.921519,3.62691429 L114.843178,4.84491429 C114.165393,11.0892 112.809825,12.3333429 109.551618,12.3582 L109.290627,9.51462857 C109.681893,9.5412 110.020786,9.43962857 110.360118,9.21077143 C111.063429,8.70377143 111.767181,7.0032 111.94939,4.26205714 L112.13204,0.707914286 L121.020699,0.707914286 L121.020699,12.1297714 L118.023483,12.1297714 Z" id="Fill-13"></path>
                <path d="M125.506355,5.35298571 L131.267083,5.35298571 C131.29261,3.93184286 130.250406,2.86512857 128.581472,2.86512857 C126.887891,2.86512857 125.845688,3.70341429 125.506355,5.35298571 L125.506355,5.35298571 Z M133.300436,10.9874143 C132.153484,11.9272714 130.66764,12.4094143 128.816496,12.4094143 C126.913418,12.4094143 125.401607,11.8509857 124.229128,10.7594143 C123.082176,9.66784286 122.5087,8.22141429 122.5087,6.41927143 C122.5087,4.7187 123.082176,3.29712857 124.203161,2.15455714 C125.323706,1.01241429 126.835517,0.4287 128.711748,0.4287 C130.250406,0.4287 131.580008,0.936128571 132.648619,1.92655714 C133.71723,2.91612857 134.264299,4.18555714 134.264299,5.73398571 C134.264299,6.36827143 134.212364,6.90141429 134.081649,7.3077 L125.610224,7.3077 C125.845688,9.00741429 127.25231,9.97212857 129.128981,9.97212857 C130.458583,9.97212857 131.553161,9.61727143 132.440002,8.93198571 L133.300436,10.9874143 Z" id="Fill-15"></path>
                <polygon id="Fill-18" points="143.776915 12.1297714 143.776915 7.76434286 138.641598 7.76434286 138.641598 12.1297714 135.643942 12.1297714 135.643942 0.707914286 138.641598 0.707914286 138.641598 5.02277143 143.776915 5.02277143 143.776915 0.707914286 146.774571 0.707914286 146.774571 12.1297714"></polygon>
                <path d="M20.1441054,7.53934286 L19.8426234,7.90234286 L19.8258988,7.92591429 C19.3444078,8.54862857 18.5966443,8.94291429 17.7414916,8.94291429 C16.9928479,8.94291429 16.3335485,8.64162857 15.8520575,8.15262857 L11.0279048,2.83491429 L10.6159527,2.38234286 L10.5833838,2.34762857 L10.5715006,2.33177143 L10.5662192,2.32705714 C9.45535689,1.17934286 7.86256347,0.456342857 6.11616826,0.456342857 C2.7360485,0.459342857 0.00158443114,3.12377143 -0.000176047904,6.4122 C0.00158443114,9.70234286 2.7360485,12.3659143 6.11616826,12.3676286 C8.04829401,12.3676286 9.78060539,11.4886286 10.8949886,10.1244857 L8.53418623,7.52091429 L8.22038084,7.90234286 L8.20057545,7.92591429 C7.72040479,8.54862857 6.97264132,8.94291429 6.11616826,8.94291429 C4.68093772,8.9412 3.51902156,7.80762857 3.51594072,6.4122 C3.51902156,5.01634286 4.68093772,3.88148571 6.11616826,3.88148571 C6.86261138,3.88148571 7.51882994,4.17762857 7.99856048,4.66662857 L8.3933479,5.10205714 L13.2465485,10.4493429 L13.2733958,10.4780571 L13.285279,10.4909143 L13.292321,10.4964857 C14.4018629,11.6463429 15.9928958,12.3676286 17.7414916,12.3676286 L17.7432521,12.3676286 C19.6656952,12.3676286 21.3905246,11.4950571 22.5044677,10.1433429 L20.1441054,7.53934286 Z" id="Fill-21"></path>
                <path d="M15.3053407,5.28518571 L15.6059425,4.92175714 L15.6226671,4.89775714 C16.1045982,4.27761429 16.8506012,3.88161429 17.7075144,3.88161429 C18.4561581,3.88161429 19.1158976,4.18161429 19.5956281,4.67147143 L24.4224216,9.99004286 L24.8334934,10.4447571 L24.8660623,10.4781857 L24.8788257,10.4906143 L24.8849874,10.4966143 C25.9927689,11.6464714 27.5842419,12.3673286 29.333718,12.3673286 C32.7125174,12.3656143 35.4483018,9.70375714 35.4496222,6.41232857 C35.4483018,3.1239 32.7125174,0.459471429 29.333718,0.4569 C27.4033527,0.456042857 25.669721,1.33847143 24.5531371,2.70175714 L26.9152599,5.30532857 L27.231706,4.92175714 L27.2488707,4.89775714 C27.7308018,4.27761429 28.4785653,3.88161429 29.333718,3.88161429 C30.7689485,3.88161429 31.9308647,5.01647143 31.9335054,6.41232857 C31.9308647,7.81075714 30.7689485,8.9409 29.333718,8.94304286 C28.5881551,8.94304286 27.9306162,8.64604286 27.4504455,8.15832857 L27.055218,7.72247143 L22.2037778,2.37475714 L22.1773707,2.34775714 L22.1632868,2.33447143 L22.1562449,2.32718571 C21.0484635,1.17947143 19.4565503,0.456042857 17.7075144,0.4569 C15.7850713,0.4569 14.0584814,1.33032857 12.9440982,2.68247143 L15.3053407,5.28518571 Z" id="Fill-24"></path>
            </g>
        </g>
    </g>
</svg>

<svg width="147" height="15" viewBox="0 0 147 15" xmlns="http://www.w3.org/2000/svg" xmlns:xlink="http://www.w3.org/1999/xlink"><g id="Page-1" stroke="none" stroke-width="1" fill="none" fill-rule="evenodd"><g id="desktop" transform="translate(-145 -4491)" fill="#CCC"><g id="Page-1" transform="translate(145 4491)"><path d="M47.003 6.673V3.246h1.907c1.511 0 2.267.559 2.267 1.701s-.756 1.726-2.241 1.726h-1.933zM44.005.708V12.13h2.998V9.007h2.193c3.675 0 5.161-1.649 5.161-3.959 0-2.461-1.668-4.34-5.396-4.34h-4.956z" id="Fill-1"/><path d="M58.673 5.353h5.761c.026-1.421-1.017-2.488-2.685-2.488-1.694 0-2.737.838-3.076 2.488zm7.794 5.634c-1.146.94-2.632 1.422-4.483 1.422-1.903 0-3.415-.558-4.588-1.65-1.147-1.091-1.72-2.538-1.72-4.34 0-1.7.573-3.122 1.694-4.264C58.491 1.012 60.003.429 61.88.429c1.537 0 2.867.507 3.935 1.498 1.069.99 1.616 2.259 1.616 3.807 0 .634-.052 1.167-.182 1.574h-8.472c.235 1.7 1.642 2.664 3.52 2.664 1.329 0 2.424-.355 3.31-1.04l.86 2.055z" id="Fill-3"/><path id="Fill-6" d="M69.058 12.13V.708h2.998v8.706h4.823V.708h2.997v8.706h1.955v5.381h-2.815V12.13z"/><path id="Fill-9" d="M86.375 12.13h-2.998V.708h2.998v7.234L91.85.708h2.998V12.13H91.85V4.896z"/><path d="M107.91.708l-4.508 5.432 5.056 5.99h-3.91l-4.64-5.762 4.222-5.66h3.78zM96.807 12.13h2.998V.708h-2.998V12.13z" id="Fill-11"/><path d="M118.023 12.13V3.627h-3.101l-.079 1.218c-.678 6.244-2.033 7.488-5.291 7.513l-.261-2.843c.39.026.73-.075 1.07-.304.702-.507 1.406-2.208 1.588-4.949l.183-3.554h8.889V12.13h-2.998z" id="Fill-13"/><path d="M125.506 5.353h5.761c.026-1.421-1.017-2.488-2.686-2.488-1.693 0-2.735.838-3.075 2.488zm7.794 5.634c-1.147.94-2.632 1.422-4.484 1.422-1.903 0-3.414-.558-4.587-1.65-1.147-1.091-1.72-2.538-1.72-4.34 0-1.7.573-3.122 1.694-4.264 1.12-1.143 2.633-1.726 4.509-1.726 1.538 0 2.868.507 3.937 1.498 1.068.99 1.615 2.259 1.615 3.807 0 .634-.052 1.167-.182 1.574h-8.472c.236 1.7 1.642 2.664 3.519 2.664 1.33 0 2.424-.355 3.311-1.04l.86 2.055z" id="Fill-15"/><path id="Fill-18" d="M143.777 12.13V7.764h-5.135v4.366h-2.998V.708h2.998v4.315h5.135V.708h2.998V12.13z"/><path d="M20.144 7.54l-.301.362-.017.024a2.613 2.613 0 0 1-2.085 1.017 2.626 2.626 0 0 1-1.889-.79l-4.824-5.318-.412-.453-.033-.034-.011-.016-.006-.005a6.197 6.197 0 0 0-4.45-1.87C2.736.458.002 3.123 0 6.411c.002 3.29 2.736 5.954 6.116 5.956a6.165 6.165 0 0 0 4.779-2.244L8.535 7.52l-.315.381-.02.024a2.61 2.61 0 0 1-2.084 1.017c-1.435-.002-2.597-1.135-2.6-2.53.003-1.397 1.165-2.532 2.6-2.532.747 0 1.403.297 1.883.786l.394.435 4.854 5.347.026.03.012.012.007.005a6.18 6.18 0 0 0 4.45 1.872h.001a6.166 6.166 0 0 0 4.761-2.225l-2.36-2.604z" id="Fill-21"/><path d="M15.305 5.285l.3-.363.018-.024a2.619 2.619 0 0 1 2.085-1.016c.748 0 1.408.3 1.888.79l4.826 5.318.411.455.033.033.013.013.006.006a6.175 6.175 0 0 0 4.449 1.87c3.379-.001 6.114-2.663 6.116-5.955C35.448 3.124 32.713.46 29.334.457a6.172 6.172 0 0 0-4.78 2.245l2.361 2.603.317-.383.017-.024a2.621 2.621 0 0 1 2.085-1.016c1.435 0 2.597 1.134 2.6 2.53-.003 1.399-1.165 2.529-2.6 2.531a2.615 2.615 0 0 1-1.884-.785l-.395-.436-4.851-5.347-.027-.027-.014-.014-.007-.007a6.18 6.18 0 0 0-4.448-1.87 6.171 6.171 0 0 0-4.764 2.225l2.361 2.603z" id="Fill-24"/></g></g></g></svg>
